X:1
T:The Battle of Vicksburg
M:3/4
L:1/8
K:C
 GGA| G3 DE D| C3 Gc e| d3 A G2-| G3 Gc e| d3| GAF| E3 CE A| G3 D C2-|\
 C3 Gc e| d3 GA F| E3| CEA| G3 D C2-| C3||
